X: 326
T: Qing ge
%%abc-version 2.0
%%abcx-abcm2ps-target-version 5.9.1 (29 Sep 2008)
%%abc-creator hum2abc beta
%%abcx-conversion-date 2013/10/02 07:52:30
%%abc-edited-by Helmut Schaffrath
%%humdrum-veritas 1222732701
%%humdrum-veritas-data 2246651358
%%continueall 1
%%barnumbers 0
L: 1/8
M: 2/4
K: A
e2e f [I:setbarnb 1]| 
e2d e | 
B2A =G | 
E4 | 
A2G F | 
E2A B | 
e2d e | 
B2A F | 
E2A B | 
e2d e | 
B2A F | 
E2E A | 
B A G F | 
E4 |]  



